X:386
T: Wer ? (112), S. 266f
N: T0275
O: Luxemburg
S: Singendes Volk, Esch-Alzette 1937 posth.]
N: Godbringen, mitgeteilt: hhh Heinrich Godefroid (Lehrer)
R: Liebeslieder]
M: 2/4
L: 1/8
K: G
D | GGGG | G2zA | BBBB | B2z2
d2dd | edcB | B2A2 | A2z2
G2BA | G2z2 | G2BA | G2z2
e2ee | d2cc | B2dd | A2z2
dddd | d2cB | BBdB | A2z2
G2BA | G2G2 | eeee | d2z2
c2c2 | B2BB | A2A2 | G2z

